X: 4394
M: 3/4
L: 1/8
K: Em	% and D and C
g>f |\
e2^d2e2 | B4B>c | B2A2G2 | F4F>G |\
d4^c>e | d4^c>e | d2g2f2 | e4e>g |
f4f>a | g4B>e | d2e2f2 | "_D.C."g4 :|\
[K:=f] [K:C]\
|: "Trio."e>d |\
(e4g2) | (c4e2) | A2f2f2 | f4f>e |\
(f4a2) | (f4a2) | B2e2d2 | "_D.C."c4 :|


